client/src/assets/icons/calendar.svg

<svg width="58" height="58" viewBox="0 0 58 58" fill="none" xmlns="http://www.w3.org/2000/svg">
<path d="M47.125 7.25H41.6875V5.4375C41.6875 4.9568 41.4965 4.49578 41.1566 4.15587C40.8167 3.81596 40.3557 3.625 39.875 3.625C39.3943 3.625 38.9333 3.81596 38.5934 4.15587C38.2535 4.49578 38.0625 4.9568 38.0625 5.4375V7.25H19.9375V5.4375C19.9375 4.9568 19.7465 4.49578 19.4066 4.15587C19.0667 3.81596 18.6057 3.625 18.125 3.625C17.6443 3.625 17.1833 3.81596 16.8434 4.15587C16.5035 4.49578 16.3125 4.9568 16.3125 5.4375V7.25H10.875C9.91359 7.25 8.99156 7.63192 8.31174 8.31174C7.63192 8.99156 7.25 9.91359 7.25 10.875V47.125C7.25 48.0864 7.63192 49.0084 8.31174 49.6883C8.99156 50.3681 9.91359 50.75 10.875 50.75H47.125C48.0864 50.75 49.0084 50.3681 49.6883 49.6883C50.3681 49.0084 50.75 48.0864 50.75 47.125V10.875C50.75 9.91359 50.3681 8.99156 49.6883 8.31174C49.0084 7.63192 48.0864 7.25 47.125 7.25ZM25.375 41.6875C25.375 42.1682 25.184 42.6292 24.8441 42.9691C24.5042 43.309 24.0432 43.5 23.5625 43.5C23.0818 43.5 22.6208 43.309 22.2809 42.9691C21.941 42.6292 21.75 42.1682 21.75 41.6875V30.1192L20.7486 30.6222C20.3184 30.8373 19.8203 30.8727 19.364 30.7206C18.9076 30.5685 18.5304 30.2413 18.3153 29.8111C18.1002 29.3809 18.0648 28.8828 18.2169 28.4265C18.369 27.9701 18.6962 27.5929 19.1264 27.3778L22.7514 25.5653C23.0278 25.427 23.3351 25.3617 23.6439 25.3755C23.9527 25.3894 24.2528 25.482 24.5157 25.6446C24.7786 25.8071 24.9956 26.0342 25.146 26.3043C25.2964 26.5744 25.3752 26.8784 25.375 27.1875V41.6875ZM38.0625 39.875C38.5432 39.875 39.0042 40.066 39.3441 40.4059C39.684 40.7458 39.875 41.2068 39.875 41.6875C39.875 42.1682 39.684 42.6292 39.3441 42.9691C39.0042 43.309 38.5432 43.5 38.0625 43.5H30.8125C30.4759 43.5 30.1459 43.4063 29.8596 43.2293C29.5733 43.0523 29.3419 42.7991 29.1914 42.4981C29.0408 42.197 28.9771 41.86 29.0073 41.5247C29.0375 41.1895 29.1605 40.8693 29.3625 40.6L35.883 31.9068C36.0313 31.7094 36.1377 31.4837 36.1956 31.2436C36.2536 31.0036 36.2619 30.7542 36.22 30.5109C36.1781 30.2675 36.087 30.0352 35.9521 29.8284C35.8173 29.6215 35.6415 29.4444 35.4358 29.3079C35.23 29.1713 34.9985 29.0783 34.7554 29.0345C34.5124 28.9907 34.263 28.997 34.0225 29.053C33.782 29.109 33.5555 29.2136 33.3569 29.3603C33.1582 29.5071 32.9917 29.6928 32.8674 29.9062C32.7519 30.119 32.595 30.3064 32.4059 30.4574C32.2168 30.6085 31.9993 30.7202 31.7664 30.7858C31.5334 30.8515 31.2897 30.8699 31.0495 30.8398C30.8093 30.8097 30.5776 30.7319 30.368 30.6108C30.1585 30.4898 29.9752 30.3279 29.8292 30.1349C29.6832 29.9419 29.5773 29.7216 29.5178 29.487C29.4582 29.2524 29.4463 29.0082 29.4827 28.7689C29.5191 28.5297 29.603 28.3001 29.7295 28.0938C30.3283 27.0577 31.252 26.248 32.3577 25.7903C33.4633 25.3326 34.6891 25.2524 35.845 25.5621C37.0008 25.8719 38.0222 26.5543 38.7509 27.5035C39.4795 28.4528 39.8746 29.6159 39.875 30.8125C39.8788 31.9946 39.4935 33.145 38.7784 34.0863L34.4375 39.875H38.0625ZM10.875 18.125V10.875H16.3125V12.6875C16.3125 13.1682 16.5035 13.6292 16.8434 13.9691C17.1833 14.309 17.6443 14.5 18.125 14.5C18.6057 14.5 19.0667 14.309 19.4066 13.9691C19.7465 13.6292 19.9375 13.1682 19.9375 12.6875V10.875H38.0625V12.6875C38.0625 13.1682 38.2535 13.6292 38.5934 13.9691C38.9333 14.309 39.3943 14.5 39.875 14.5C40.3557 14.5 40.8167 14.309 41.1566 13.9691C41.4965 13.6292 41.6875 13.1682 41.6875 12.6875V10.875H47.125V18.125H10.875Z" fill="#011034"/>
</svg>

<svg xmlns="http://www.w3.org/2000/svg" width="58" height="58" fill="none" viewBox="0 0 58 58">
  <path fill="#011034" d="M47.125 7.25h-5.438V5.437a1.813 1.813 0 0 0-3.624 0V7.25H19.936V5.437a1.813 1.813 0 0 0-3.625 0V7.25h-5.437a3.625 3.625 0 0 0-3.625 3.625v36.25a3.625 3.625 0 0 0 3.625 3.625h36.25a3.625 3.625 0 0 0 3.625-3.625v-36.25a3.625 3.625 0 0 0-3.625-3.625Zm-21.75 34.438a1.812 1.812 0 0 1-3.625 0v-11.57l-1.001.503a1.814 1.814 0 0 1-1.623-3.244l3.625-1.813a1.814 1.814 0 0 1 2.624 1.622v14.5Zm12.688-1.813a1.812 1.812 0 0 1 0 3.625h-7.25a1.812 1.812 0 0 1-1.45-2.9l6.52-8.693a1.811 1.811 0 0 0-1.128-2.872 1.813 1.813 0 0 0-1.888.871 1.81 1.81 0 0 1-3.038.229 1.813 1.813 0 0 1-.1-2.041 5.438 5.438 0 1 1 9.05 5.992l-4.342 5.789h3.626Zm-27.188-21.75v-7.25h5.438v1.813a1.812 1.812 0 0 0 3.625 0v-1.813h18.125v1.813a1.812 1.812 0 0 0 3.624 0v-1.813h5.438v7.25h-36.25Z"/>
</svg>
